src/images_karasa_jaga_svg/cmd/sc_dbquerypropertiesdialog.svg

<svg height="16" width="16" xmlns="http://www.w3.org/2000/svg" xmlns:xlink="http://www.w3.org/1999/xlink"><linearGradient id="a" gradientUnits="userSpaceOnUse" x1="102.30765" x2="106.01008" y1="39.141762" y2="209.45338"><stop offset="0" stop-color="#99999c"/><stop offset=".5" stop-color="#9c9ca1"/><stop offset="1" stop-color="#cdcdd1"/></linearGradient><linearGradient id="b" gradientUnits="userSpaceOnUse" x1="78.610847" x2="120.3435" y1="88.852417" y2="111.54715"><stop offset="0" stop-color="#fff"/><stop offset="1" stop-color="#ccc"/></linearGradient><linearGradient id="c" gradientUnits="userSpaceOnUse" x1="88.38102" x2="130.48599" y1="1008.9966" y2="1015.6953"><stop offset="0" stop-color="#7b7b7b"/><stop offset="1" stop-color="#797979" stop-opacity="0"/></linearGradient><clipPath id="d"><path d="m41.355614 933.74432h83.943996v117.52168h-83.943996z"/></clipPath><filter id="e" color-interpolation-filters="sRGB" height="1.073732" width="1.13754" x="-.06877" y="-.036866"><feGaussianBlur stdDeviation="1.0557314"/></filter><linearGradient id="f" gradientUnits="userSpaceOnUse" x1="98.40847" x2="115.25523" y1="30.758501" y2="77.140503"><stop offset="0" stop-color="#fff" stop-opacity=".683453"/><stop offset="1" stop-color="#fff" stop-opacity="0"/></linearGradient><filter id="g"><feGaussianBlur stdDeviation="2.4"/></filter><linearGradient id="h" gradientTransform="matrix(.1133598 0 0 .1691546 .642795 -76.95463)" gradientUnits="userSpaceOnUse" x1="399.77466" x2="399.77466" y1="681.00012" y2="549.33234"><stop offset="0" stop-color="#cbcbcd"/><stop offset=".5" stop-color="#e0e0e2"/><stop offset="1" stop-color="#fff"/></linearGradient><linearGradient id="i" gradientTransform="matrix(.58291629 0 0 .66676377 62.177025 -566.68964)" gradientUnits="userSpaceOnUse" x1="63.011921" x2="63.011921" y1="945.89801" y2="1033.1569"><stop offset="0" stop-color="#545454" stop-opacity=".988"/><stop offset="1" stop-color="#ebebeb"/></linearGradient><linearGradient id="j" gradientTransform="matrix(.48045402 0 0 .66178602 128.73476 -578.51587)" gradientUnits="userSpaceOnUse" x1="-60.535713" x2="-60.357143" y1="979.50507" y2="1009.505"><stop offset="0" stop-color="#979797"/><stop offset=".148461" stop-color="#f6f6f6"/><stop offset=".28399727" stop-color="#e2e2e2"/><stop offset=".41198727" stop-color="#dedede"/><stop offset=".41198727" stop-color="#f6f6f6"/><stop offset="1" stop-color="#6b6b6b"/></linearGradient><linearGradient id="k" gradientTransform="matrix(.480454 0 0 .58309338 128.76683 499.76645)" gradientUnits="userSpaceOnUse" x1="-61.078979" x2="-60.6413" y1="-1056.658" y2="-1010.9131"><stop offset="0" stop-color="#777"/><stop offset=".18176934" stop-color="#a8a8a8"/><stop offset=".22864534" stop-color="#cdcdcd"/><stop offset=".34561315" stop-color="#f7f7f7"/><stop offset="1" stop-color="#fff"/></linearGradient><g transform="scale(.125)"><path d="m85.480617 232.8761h116.296063c1.02599 0 1.85197.97507 1.85197 2.18627v107.05603c0 1.21119-.82598 2.18627-1.85197 2.18627h-116.296063c-1.025991 0-1.85197-.97508-1.85197-2.18627v-107.05603c0-1.2112.825979-2.18627 1.85197-2.18627z" filter="url(#g)" opacity=".5" transform="matrix(1 0 0 .9333333 -79.62865 -205.35102)"/><path d="m7.999997 16h112.000003v96h-112.000003z" fill="url(#h)"/><path d="m78.20266 37.61897v-2.7448z" fill="#fff" fill-opacity=".756881"/><path d="m8 40h112v72h-112z" fill="#fff"/><g fill="#cacacc"><path d="m15.999997 64h40.000003v8h-40.000003z"/><path d="m15.999997 48h40.000003v8h-40.000003z"/><path d="m72 48h40v8h-40z"/><path d="m72 64h40v8h-40z"/><path d="m15.999997 80h40.000003v8h-40.000003z"/><path d="m72 80h40v8h-40z"/><path d="m15.999997 96h40.000003v8h-40.000003z"/><path d="m72 96h40v8h-40z"/></g></g><g transform="matrix(.13504656 0 0 .13504656 -1.316297 -1.28596)"><path d="m68.985809 46.546616h59.012391v81.453444h-59.012391z" fill="url(#a)"/><path d="m76.390663 53.951469h44.429127v66.643681h-44.429127z" fill="url(#b)"/><path clip-path="url(#d)" d="m92.81509 1029.6319c1.071428 1.4286 10.71429 15.3572 11.78571 13.5715 1.07143-1.7858 26.42857-25.3572 25-26.7858-1.42857-1.4285-33.928567-41.78567-33.928567-41.78567z" fill="url(#c)" fill-rule="evenodd" filter="url(#e)" opacity=".68" transform="matrix(.69309305 0 0 .69309305 41.153912 -600.6251)"/><path d="m72 48v48c14.790777-17.220934 34.04067-23.231931 48-25.4375v-22.5625z" fill="url(#f)" fill-rule="evenodd" transform="matrix(.92560668 0 0 .92560668 9.746984 9.522348)"/><path d="m83.795517 65.058746h29.619413v48.131544h-29.619413z" fill="url(#i)"/><path d="m87.497948 68.761177h22.214562v40.726693h-22.214562z" fill="#535353"/><path d="m91.200371 72.4636h14.809709v14.809709h-14.809709z" fill="url(#j)"/><path d="m91.200371-116.89272h14.809719v29.619408h-14.809719z" fill="url(#k)" transform="scale(1 -1)"/></g></svg>

<?xml version="1.0" encoding="UTF-8" standalone="no"?>
<svg
   xmlns:dc="http://purl.org/dc/elements/1.1/"
   xmlns:cc="http://creativecommons.org/ns#"
   xmlns:rdf="http://www.w3.org/1999/02/22-rdf-syntax-ns#"
   xmlns:svg="http://www.w3.org/2000/svg"
   xmlns="http://www.w3.org/2000/svg"
   xmlns:sodipodi="http://sodipodi.sourceforge.net/DTD/sodipodi-0.dtd"
   xmlns:inkscape="http://www.inkscape.org/namespaces/inkscape"
   height="128"
   width="128"
   version="1.1"
   id="svg337"
   sodipodi:docname="sc_dbquerypropertiesdialog.svg"
   inkscape:version="0.92.3 (unknown)">
  <metadata
     id="metadata343">
    <rdf:RDF>
      <cc:Work
         rdf:about="">
        <dc:format>image/svg+xml</dc:format>
        <dc:type
           rdf:resource="http://purl.org/dc/dcmitype/StillImage" />
      </cc:Work>
    </rdf:RDF>
  </metadata>
  <defs
     id="defs341">
    <linearGradient
       id="c-3"
       gradientUnits="userSpaceOnUse"
       x1="102.30765"
       x2="106.01008"
       y1="39.141762"
       y2="209.45338">
      <stop
         offset="0"
         stop-color="#99999c"
         id="stop12-6" />
      <stop
         offset=".5"
         stop-color="#9c9ca1"
         id="stop14-7" />
      <stop
         offset="1"
         stop-color="#cdcdd1"
         id="stop16-5" />
    </linearGradient>
    <linearGradient
       id="d-3"
       gradientUnits="userSpaceOnUse"
       x1="78.610847"
       x2="120.3435"
       y1="88.852417"
       y2="111.54715">
      <stop
         offset="0"
         stop-color="#fff"
         id="stop19-5" />
      <stop
         offset="1"
         stop-color="#ccc"
         id="stop21-6" />
    </linearGradient>
    <linearGradient
       id="e-2"
       gradientUnits="userSpaceOnUse"
       x1="88.38102"
       x2="130.48599"
       y1="1008.9966"
       y2="1015.6953">
      <stop
         offset="0"
         stop-color="#7b7b7b"
         id="stop24-9" />
      <stop
         offset="1"
         stop-color="#797979"
         stop-opacity="0"
         id="stop26-1" />
    </linearGradient>
    <clipPath
       id="f-2">
      <path
         inkscape:connector-curvature="0"
         d="M 41.355614,933.74432 H 125.29961 V 1051.266 H 41.355614 Z"
         id="path29-7" />
    </clipPath>
    <filter
       style="color-interpolation-filters:sRGB"
       id="g-0"
       height="1.073732"
       width="1.13754"
       x="-0.068769999"
       y="-0.036866002">
      <feGaussianBlur
         stdDeviation="1.0557314"
         id="feGaussianBlur32-9" />
    </filter>
    <linearGradient
       id="h-3"
       gradientUnits="userSpaceOnUse"
       x1="98.40847"
       x2="115.25523"
       y1="30.758501"
       y2="77.140503">
      <stop
         offset="0"
         stop-color="#fff"
         stop-opacity=".683453"
         id="stop35-6" />
      <stop
         offset="1"
         stop-color="#fff"
         stop-opacity="0"
         id="stop37-0" />
    </linearGradient>
    <linearGradient
       id="linearGradient1500"
       gradientTransform="matrix(0.58291629,0,0,0.66676377,62.177025,-566.68964)"
       gradientUnits="userSpaceOnUse"
       x1="63.011921"
       x2="63.011921"
       y1="945.89801"
       y2="1033.1569">
      <stop
         offset="0"
         stop-color="#545454"
         stop-opacity=".988"
         id="stop40-6" />
      <stop
         offset="1"
         stop-color="#ebebeb"
         id="stop42-2" />
    </linearGradient>
    <linearGradient
       id="linearGradient1508"
       gradientTransform="matrix(0.48045402,0,0,0.66178602,128.73476,-578.51587)"
       gradientUnits="userSpaceOnUse"
       x1="-60.535713"
       x2="-60.357143"
       y1="979.50507"
       y2="1009.505">
      <stop
         offset="0"
         stop-color="#979797"
         id="stop45-6" />
      <stop
         offset=".148461"
         stop-color="#f6f6f6"
         id="stop47-1" />
      <stop
         offset=".28399727"
         stop-color="#e2e2e2"
         id="stop49-8" />
      <stop
         offset=".41198727"
         stop-color="#dedede"
         id="stop51-7" />
      <stop
         offset=".41198727"
         stop-color="#f6f6f6"
         id="stop53-9" />
      <stop
         offset="1"
         stop-color="#6b6b6b"
         id="stop55-2" />
    </linearGradient>
    <linearGradient
       id="linearGradient1515"
       gradientTransform="matrix(0.480454,0,0,0.58309338,128.76683,499.76645)"
       gradientUnits="userSpaceOnUse"
       x1="-61.078979"
       x2="-60.6413"
       y1="-1056.658"
       y2="-1010.9131">
      <stop
         offset="0"
         stop-color="#777"
         id="stop58-0" />
      <stop
         offset=".18176934"
         stop-color="#a8a8a8"
         id="stop60-2" />
      <stop
         offset=".22864534"
         stop-color="#cdcdcd"
         id="stop62-3" />
      <stop
         offset=".34561315"
         stop-color="#f7f7f7"
         id="stop64-7" />
      <stop
         offset="1"
         stop-color="#fff"
         id="stop66-5" />
    </linearGradient>
  </defs>
  <sodipodi:namedview
     pagecolor="#ffffff"
     bordercolor="#666666"
     borderopacity="1"
     objecttolerance="10"
     gridtolerance="10"
     guidetolerance="10"
     inkscape:pageopacity="0"
     inkscape:pageshadow="2"
     inkscape:window-width="1366"
     inkscape:window-height="706"
     id="namedview339"
     showgrid="false"
     inkscape:zoom="0.921875"
     inkscape:cx="-69.153247"
     inkscape:cy="51.451737"
     inkscape:window-x="0"
     inkscape:window-y="0"
     inkscape:window-maximized="1"
     inkscape:current-layer="svg337" />
  <filter
     id="a">
    <feGaussianBlur
       stdDeviation="2.4"
       id="feGaussianBlur2" />
  </filter>
  <linearGradient
     id="b"
     gradientTransform="matrix(0.1133598,0,0,0.1691546,0.642795,-76.95463)"
     gradientUnits="userSpaceOnUse"
     x1="399.77466"
     x2="399.77466"
     y1="681.00012"
     y2="549.33234">
    <stop
       offset="0"
       stop-color="#cbcbcd"
       id="stop5" />
    <stop
       offset=".5"
       stop-color="#e0e0e2"
       id="stop7" />
    <stop
       offset="1"
       stop-color="#fff"
       id="stop9" />
  </linearGradient>
  <linearGradient
     id="c"
     gradientUnits="userSpaceOnUse"
     x1="102.30765"
     x2="106.01008"
     y1="39.141762"
     y2="209.45338">
    <stop
       offset="0"
       stop-color="#99999c"
       id="stop12" />
    <stop
       offset=".5"
       stop-color="#9c9ca1"
       id="stop14" />
    <stop
       offset="1"
       stop-color="#cdcdd1"
       id="stop16" />
  </linearGradient>
  <linearGradient
     id="d"
     gradientUnits="userSpaceOnUse"
     x1="78.61085034347"
     x2="120.34349451992"
     y1="88.85241574791"
     y2="111.54715161013">
    <stop
       offset="0"
       stop-color="#fff"
       id="stop19" />
    <stop
       offset="1"
       stop-color="#ccc"
       id="stop21" />
  </linearGradient>
  <linearGradient
     id="e"
     gradientUnits="userSpaceOnUse"
     x1="88.38102"
     x2="130.48599"
     y1="1008.9966"
     y2="1015.6953">
    <stop
       offset="0"
       stop-color="#7b7b7b"
       id="stop24" />
    <stop
       offset="1"
       stop-color="#797979"
       stop-opacity="0"
       id="stop26" />
  </linearGradient>
  <clipPath
     id="f">
    <path
       d="m41.355614 933.74432h83.943993v117.52166h-83.943993z"
       id="path29" />
  </clipPath>
  <filter
     id="g"
     color-interpolation-filters="sRGB"
     height="1.073732"
     width="1.13754"
     x="-.06877"
     y="-.036866">
    <feGaussianBlur
       stdDeviation="1.0557314"
       id="feGaussianBlur32" />
  </filter>
  <linearGradient
     id="h"
     gradientUnits="userSpaceOnUse"
     x1="98.40846912202"
     x2="115.2552252896"
     y1="30.75850104895"
     y2="77.14050006823">
    <stop
       offset="0"
       stop-color="#fff"
       stop-opacity=".683453"
       id="stop35" />
    <stop
       offset="1"
       stop-color="#fff"
       stop-opacity="0"
       id="stop37" />
  </linearGradient>
  <linearGradient
     id="i"
     gradientTransform="matrix(0.58291629,0,0,0.66676377,62.177025,-566.68964)"
     gradientUnits="userSpaceOnUse"
     x1="63.011921"
     x2="63.011921"
     y1="945.89801"
     y2="1033.1569">
    <stop
       offset="0"
       stop-color="#545454"
       stop-opacity=".988"
       id="stop40" />
    <stop
       offset="1"
       stop-color="#ebebeb"
       id="stop42" />
  </linearGradient>
  <linearGradient
     id="j"
     gradientTransform="matrix(0.48045402,0,0,0.66178602,128.73476,-578.51587)"
     gradientUnits="userSpaceOnUse"
     x1="-60.535713"
     x2="-60.357143"
     y1="979.50507"
     y2="1009.505">
    <stop
       offset="0"
       stop-color="#979797"
       id="stop45" />
    <stop
       offset=".148461"
       stop-color="#f6f6f6"
       id="stop47" />
    <stop
       offset=".28399727"
       stop-color="#e2e2e2"
       id="stop49" />
    <stop
       offset=".41198727"
       stop-color="#dedede"
       id="stop51" />
    <stop
       offset=".41198727"
       stop-color="#f6f6f6"
       id="stop53" />
    <stop
       offset="1"
       stop-color="#6b6b6b"
       id="stop55" />
  </linearGradient>
  <linearGradient
     id="k"
     gradientTransform="matrix(0.480454,0,0,0.58309338,128.76683,499.76645)"
     gradientUnits="userSpaceOnUse"
     x1="-61.078979"
     x2="-60.6413"
     y1="-1056.658"
     y2="-1010.9131">
    <stop
       offset="0"
       stop-color="#777"
       id="stop58" />
    <stop
       offset=".18176934"
       stop-color="#a8a8a8"
       id="stop60" />
    <stop
       offset=".22864534"
       stop-color="#cdcdcd"
       id="stop62" />
    <stop
       offset=".34561315"
       stop-color="#f7f7f7"
       id="stop64" />
    <stop
       offset="1"
       stop-color="#fff"
       id="stop66" />
  </linearGradient>
  <g
     id="g1548">
    <g
       id="g1433">
      <path
         style="opacity:0.5;filter:url(#a)"
         inkscape:connector-curvature="0"
         id="path69"
         transform="matrix(1,0,0,0.9333333,-79.62865,-205.35102)"
         d="M 85.480617,232.8761 H 201.77668 c 1.02599,0 1.85197,0.97507 1.85197,2.18627 V 342.1184 c 0,1.21119 -0.82598,2.18627 -1.85197,2.18627 H 85.480617 c -1.025991,0 -1.85197,-0.97508 -1.85197,-2.18627 V 235.06237 c 0,-1.2112 0.825979,-2.18627 1.85197,-2.18627 z" />
      <path
         inkscape:connector-curvature="0"
         style="fill:url(#b)"
         id="path145"
         d="M 7.999997,16 H 120 v 96 H 7.999997 Z" />
      <path
         d="m 78.20266,37.61897 v -2.7448 z"
         id="path173"
         inkscape:connector-curvature="0"
         style="fill:#ffffff;fill-opacity:0.756881" />
      <path
         style="fill:#ffffff"
         d="m 8,40 h 112 v 72 H 8 Z"
         id="path297"
         inkscape:connector-curvature="0" />
      <path
         style="fill:#cacacc"
         inkscape:connector-curvature="0"
         id="path301"
         d="M 15.999997,64 H 56 v 8 H 15.999997 Z" />
      <path
         style="fill:#cacacc"
         inkscape:connector-curvature="0"
         id="path303"
         d="M 15.999997,48 H 56 v 8 H 15.999997 Z" />
      <path
         style="fill:#cacacc"
         inkscape:connector-curvature="0"
         id="path305"
         d="m 72,48 h 40 v 8 H 72 Z" />
      <path
         style="fill:#cacacc"
         inkscape:connector-curvature="0"
         id="path307"
         d="m 72,64 h 40 v 8 H 72 Z" />
      <path
         style="fill:#cacacc"
         inkscape:connector-curvature="0"
         id="path309"
         d="M 15.999997,80 H 56 v 8 H 15.999997 Z" />
      <path
         style="fill:#cacacc"
         inkscape:connector-curvature="0"
         id="path311"
         d="m 72,80 h 40 v 8 H 72 Z" />
      <path
         style="fill:#cacacc"
         inkscape:connector-curvature="0"
         id="path313"
         d="M 15.999997,96 H 56 v 8 H 15.999997 Z" />
      <path
         style="fill:#cacacc"
         inkscape:connector-curvature="0"
         id="path315"
         d="m 72,96 h 40 v 8 H 72 Z" />
    </g>
    <g
       transform="matrix(1.0803725,0,0,1.0803725,-10.530373,-10.28768)"
       id="g333">
      <path
         d="M 68.985809,46.546616 H 127.9982 V 128.00006 H 68.985809 Z"
         id="path317"
         style="fill:url(#c-3)"
         inkscape:connector-curvature="0" />
      <path
         d="M 76.390663,53.951469 H 120.81979 V 120.59515 H 76.390663 Z"
         id="path319"
         style="fill:url(#d-3)"
         inkscape:connector-curvature="0" />
      <path
         clip-path="url(#f-2)"
         d="m 92.81509,1029.6319 c 1.071428,1.4286 10.71429,15.3572 11.78571,13.5715 1.07143,-1.7858 26.42857,-25.3572 25,-26.7858 -1.42857,-1.4285 -33.928567,-41.78567 -33.928567,-41.78567 z"
         transform="matrix(0.69309305,0,0,0.69309305,41.153912,-600.6251)"
         id="path321"
         style="opacity:0.68000034;fill:url(#e-2);fill-rule:evenodd;filter:url(#g-0)"
         inkscape:connector-curvature="0" />
      <path
         d="M 72,48 V 96 C 86.790777,78.779066 106.04067,72.768069 120,70.5625 V 48 Z"
         transform="matrix(0.92560668,0,0,0.92560668,9.746984,9.522348)"
         id="path323"
         style="fill:url(#h-3);fill-rule:evenodd"
         inkscape:connector-curvature="0" />
      <path
         d="M 83.795517,65.058746 H 113.41493 V 113.19029 H 83.795517 Z"
         id="path325"
         style="fill:url(#i)"
         inkscape:connector-curvature="0" />
      <path
         d="M 87.497948,68.761177 H 109.71251 V 109.48787 H 87.497948 Z"
         id="path327"
         inkscape:connector-curvature="0"
         style="fill:#535353" />
      <path
         d="M 91.200371,72.4636 H 106.01008 V 87.273309 H 91.200371 Z"
         id="path329"
         style="fill:url(#j)"
         inkscape:connector-curvature="0" />
      <path
         d="m 91.200371,-116.89272 h 14.809719 v 29.619408 H 91.200371 Z"
         transform="scale(1,-1)"
         id="path331"
         style="fill:url(#k)"
         inkscape:connector-curvature="0" />
    </g>
  </g>
</svg>
